X:70
T:Broken Leg'd Chicken. LW.070
M:6/8
Q:3/8=80
L:1/16
B:Lionel Winship MS, 1833, Wark, Northumberland
Z:Village Music Project 2017 Anne Wride
K:G
c2 | B4d2 dcBcd2 | dcBcd2 e2c2e2 | e2c2e2 d2c2B2 | e2c2A2 A4c2 |
B4d2 dcBcd2 | dBcdef g4d2 | e2d2c2 "_9 demi-semi-quavers in ms, no triplets"(3Bcd(3efg(3{f/}edc | B2G2G2 G4:|
|: ef | gfefg2 d2efge | g2f2e2 d2c2B2 | c2d2e2 d2c2B2 | e2c2A2 A4ef |
gfefg2 | d2efge | g2f2e2 d2c2B2 | c2d2e2 Bdg2d2 | B2G2G2 G4:|
